X: 22
T: Blue Beard
%R: reel
B: "Twenty Four Country Dances for the Year 1799", Thomas Skillern, ed. p.11 #2
F: http://www.vwml.org/browse/browse-collections-dance-tune-books/browse-skillerns1799
Z: 2014 John Chambers <jc:trillian.mit.edu>
M: 2/4
L: 1/16
K: A
|:\
efed cdcB | A2Ac B2Bd |\
c2ce fedc | cBBB B4 |\
efed cdcB | A2Ac B2Bd |\
cBcd cBAG | A2A2 A4 :|
B3AG2A2 | B2AB c2Bc |\
dcde fedc | cBBB B4 |\
B3AG2A2 | BABc B2c2 |\
B^dfa gefd | e2e2e2"^D.C."z2 |]
%%begintext align
%% Sett and change sides, same back again, Cast off
%% 2 Cu: and come up the middle, right and left.
%%endtext

%%sep 1 1 500
%%sep 1 1 500
